svgs/mupdf.svg

<svg xmlns="http://www.w3.org/2000/svg" viewBox="0 0 48 48"><path d="M7.45 5.5a2.001 2.001 0 0 0-1.95 2v33.1a2 2 0 0 0 2 2h13v-6.02a2.001 2.001 0 0 1 2-1.95h3.16a2.003 2.003 0 0 1 2 1.95v5.92h13a2 2 0 0 0 2-2V7.45a2.001 2.001 0 0 0-2-1.95ZM24 10.76c2.744 0 5.378 1.091 7.319 3.031a10.357 10.357 0 0 1 3.031 7.319c0 2.744-1.091 5.378-3.031 7.319A10.357 10.357 0 0 1 24 31.46a10.357 10.357 0 0 1-7.319-3.031 10.357 10.357 0 0 1-3.031-7.319c0-2.744 1.091-5.378 3.031-7.319A10.357 10.357 0 0 1 24 10.76Zm0 5.39a5.002 5.002 0 0 0-3.121 8.265A5.002 5.002 0 0 0 24 26.07a5.004 5.004 0 0 0 3.536-1.464A5.004 5.004 0 0 0 29 21.07a5.001 5.001 0 0 0-5-4.92Z" fill="none" stroke="#000" stroke-width="2" stroke-linecap="round" stroke-linejoin="round"/></svg>

<svg
    xmlns="http://www.w3.org/2000/svg"
    viewBox="0 0 48 48"
    id="vector">
    <path
        id="path"
        d="M 7.45 5.5 C 6.928 5.513 6.432 5.73 6.068 6.103 C 5.704 6.477 5.5 6.978 5.5 7.5 L 5.5 40.6 C 5.5 41.13 5.711 41.639 6.086 42.014 C 6.461 42.389 6.97 42.6 7.5 42.6 L 20.5 42.6 L 20.5 36.58 C 20.513 36.058 20.73 35.562 21.103 35.198 C 21.477 34.834 21.978 34.63 22.5 34.63 L 25.66 34.63 C 26.182 34.63 26.683 34.834 27.057 35.198 C 27.43 35.562 27.647 36.058 27.66 36.58 L 27.66 42.5 L 40.66 42.5 C 41.19 42.5 41.699 42.289 42.074 41.914 C 42.449 41.539 42.66 41.03 42.66 40.5 L 42.66 7.45 C 42.647 6.928 42.43 6.432 42.057 6.068 C 41.683 5.704 41.182 5.5 40.66 5.5 Z M 24 10.76 C 26.744 10.76 29.378 11.851 31.319 13.791 C 33.259 15.732 34.35 18.366 34.35 21.11 C 34.35 23.854 33.259 26.488 31.319 28.429 C 29.378 30.369 26.744 31.46 24 31.46 C 21.256 31.46 18.622 30.369 16.681 28.429 C 14.741 26.488 13.65 23.854 13.65 21.11 C 13.65 18.366 14.741 15.732 16.681 13.791 C 18.622 11.851 21.256 10.76 24 10.76 Z M 24 16.15 C 22.793 16.304 21.683 16.892 20.879 17.805 C 20.075 18.718 19.631 19.894 19.631 21.11 C 19.631 22.326 20.075 23.502 20.879 24.415 C 21.683 25.328 22.793 25.916 24 26.07 C 25.326 26.07 26.598 25.543 27.536 24.606 C 28.473 23.668 29 22.396 29 21.07 C 28.979 19.758 28.443 18.506 27.508 17.586 C 26.572 16.666 25.312 16.15 24 16.15 Z"
        fill="none"
        stroke="#000000"
        stroke-width="2"
        stroke-linecap="round"
        stroke-linejoin="round"/>
</svg>
